icons/modern/palm-down-hand-medium-dark.svg

<svg width="32" height="32" viewBox="0 0 32 32" fill="none" xmlns="http://www.w3.org/2000/svg">
<path d="M15.0111 18.1245C13.8334 17.9029 13.0536 16.7599 13.2732 15.572L14.2122 10.451L18.4806 11.2505L17.5384 16.3715C17.322 17.5594 16.1888 18.346 15.0111 18.1245Z" fill="url(#paint0_radial_20020_6751)"/>
<path d="M15.0111 18.1245C13.8334 17.9029 13.0536 16.7599 13.2732 15.572L14.2122 10.451L18.4806 11.2505L17.5384 16.3715C17.322 17.5594 16.1888 18.346 15.0111 18.1245Z" fill="url(#paint1_linear_20020_6751)"/>
<path d="M15.0111 18.1245C13.8334 17.9029 13.0536 16.7599 13.2732 15.572L14.2122 10.451L18.4806 11.2505L17.5384 16.3715C17.322 17.5594 16.1888 18.346 15.0111 18.1245Z" fill="url(#paint2_radial_20020_6751)"/>
<path d="M15.0111 18.1245C13.8334 17.9029 13.0536 16.7599 13.2732 15.572L14.2122 10.451L18.4806 11.2505L17.5384 16.3715C17.322 17.5594 16.1888 18.346 15.0111 18.1245Z" fill="url(#paint3_linear_20020_6751)"/>
<path d="M18.7695 20.1796C17.5655 20.0576 16.689 18.9852 16.8078 17.7813L17.3279 12.5961L21.6847 13.0327L21.1646 18.2179C21.0458 19.4219 19.9735 20.3016 18.7695 20.1796Z" fill="url(#paint4_radial_20020_6751)"/>
<path d="M18.7695 20.1796C17.5655 20.0576 16.689 18.9852 16.8078 17.7813L17.3279 12.5961L21.6847 13.0327L21.1646 18.2179C21.0458 19.4219 19.9735 20.3016 18.7695 20.1796Z" fill="url(#paint5_radial_20020_6751)"/>
<path d="M18.7695 20.1796C17.5655 20.0576 16.689 18.9852 16.8078 17.7813L17.3279 12.5961L21.6847 13.0327L21.1646 18.2179C21.0458 19.4219 19.9735 20.3016 18.7695 20.1796Z" fill="url(#paint6_radial_20020_6751)"/>
<path d="M18.7695 20.1796C17.5655 20.0576 16.689 18.9852 16.8078 17.7813L17.3279 12.5961L21.6847 13.0327L21.1646 18.2179C21.0458 19.4219 19.9735 20.3016 18.7695 20.1796Z" fill="url(#paint7_linear_20020_6751)"/>
<path d="M23.929 20.8919C22.7411 21.1134 21.5981 20.3268 21.3765 19.1389L20.25 13.1273L24.7285 13.2152L25.682 18.3394C25.9004 19.5274 25.117 20.6703 23.929 20.8919Z" fill="url(#paint8_radial_20020_6751)"/>
<path d="M23.929 20.8919C22.7411 21.1134 21.5981 20.3268 21.3765 19.1389L20.25 13.1273L24.7285 13.2152L25.682 18.3394C25.9004 19.5274 25.117 20.6703 23.929 20.8919Z" fill="url(#paint9_radial_20020_6751)"/>
<g filter="url(#filter0_iii_20020_6751)">
<path d="M12.6606 17.0267C12.6606 15.325 13.5474 14.4515 15.0591 13.9477C16.0356 13.7367 19.5903 13.7992 19.5903 13.7992C20.7231 13.7992 21.3697 14.247 22.0278 14.8538L25.7856 18.0648C26.77 18.971 28.2697 19.1832 29.2778 18.1429C30.3309 17.0577 30.2153 15.4085 28.9341 14.2992L23.1685 9.31152C21.8681 8.14284 21.2466 7.49429 18.8594 7.49429L9.88721 7.49429C5.0584 7.46539 2.1095 10.4242 2.1095 14.2992C2.1095 16.6429 4.19223 19.1063 5.79346 20.7679L7.51221 22.4013C8.87352 23.6085 10.645 24.6273 12.4888 24.6273H14.3169C14.9077 24.6273 15.3693 24.5686 16.106 25.0101C17.0114 25.5527 18.436 25.4301 19.1841 24.682C19.8358 24.0302 20.0345 23.095 19.6878 22.2377C19.0866 20.7409 17.4263 20.1117 15.8091 19.7992L14.6841 19.6429C13.2388 19.5413 12.6606 17.9085 12.6606 17.0267Z" fill="url(#paint10_linear_20020_6751)"/>
</g>
<path d="M12.6606 17.0267C12.6606 15.325 13.5474 14.4515 15.0591 13.9477C16.0356 13.7367 19.5903 13.7992 19.5903 13.7992C20.7231 13.7992 21.3697 14.247 22.0278 14.8538L25.7856 18.0648C26.77 18.971 28.2697 19.1832 29.2778 18.1429C30.3309 17.0577 30.2153 15.4085 28.9341 14.2992L23.1685 9.31152C21.8681 8.14284 21.2466 7.49429 18.8594 7.49429L9.88721 7.49429C5.0584 7.46539 2.1095 10.4242 2.1095 14.2992C2.1095 16.6429 4.19223 19.1063 5.79346 20.7679L7.51221 22.4013C8.87352 23.6085 10.645 24.6273 12.4888 24.6273H14.3169C14.9077 24.6273 15.3693 24.5686 16.106 25.0101C17.0114 25.5527 18.436 25.4301 19.1841 24.682C19.8358 24.0302 20.0345 23.095 19.6878 22.2377C19.0866 20.7409 17.4263 20.1117 15.8091 19.7992L14.6841 19.6429C13.2388 19.5413 12.6606 17.9085 12.6606 17.0267Z" fill="url(#paint11_radial_20020_6751)"/>
<g filter="url(#filter1_f_20020_6751)">
<path d="M21.4229 9.77584L28.1134 15.0454C28.4945 15.3456 28.5483 15.9029 28.2318 16.2704C27.9418 16.6073 27.4414 16.6644 27.0828 16.4016L20.9204 11.8852C20.5103 11.5847 20.0012 11.4516 19.4965 11.513L14.5167 12.1192C12.5093 12.3635 11 14.0677 11 16.0899V16.8596C11 17.8135 11.3409 18.736 11.9612 19.4607L12.1363 19.6653C12.631 20.2433 13.3269 20.6117 14.083 20.696L16.0015 20.91C16.6485 20.9821 17.2545 21.2628 17.728 21.7096L18.5738 22.5077C18.86 22.7779 18.8707 23.2297 18.5975 23.513C18.34 23.7801 17.9198 23.8028 17.635 23.5649L17.198 23.1999C16.6584 22.7494 15.9779 22.5026 15.275 22.5026H13.0987C12.0877 22.5026 11.1142 22.1197 10.3741 21.4311L6.57149 17.8932C5.52217 16.9169 5.07538 15.4539 5.40027 14.0579L5.63884 13.0329C6.15343 10.8219 8.09291 9.23506 10.362 9.16846L18.8306 8.91992C19.7683 8.8924 20.6859 9.19536 21.4229 9.77584Z" fill="#A37B70"/>
</g>
<defs>
<filter id="filter0_iii_20020_6751" x="2.1095" y="6.24408" width="29.1303" height="19.2507" filterUnits="userSpaceOnUse" color-interpolation-filters="sRGB">
<feFlood flood-opacity="0" result="BackgroundImageFix"/>
<feBlend mode="normal" in="SourceGraphic" in2="BackgroundImageFix" result="shape"/>
<feColorMatrix in="SourceAlpha" type="matrix" values="0 0 0 0 0 0 0 0 0 0 0 0 0 0 0 0 0 0 127 0" result="hardAlpha"/>
<feOffset dx="1.25" dy="-1.25"/>
<feGaussianBlur stdDeviation="0.75"/>
<feComposite in2="hardAlpha" operator="arithmetic" k2="-1" k3="1"/>
<feColorMatrix type="matrix" values="0 0 0 0 0.478431 0 0 0 0 0.298039 0 0 0 0 0.32549 0 0 0 1 0"/>
<feBlend mode="normal" in2="shape" result="effect1_innerShadow_20020_6751"/>
<feColorMatrix in="SourceAlpha" type="matrix" values="0 0 0 0 0 0 0 0 0 0 0 0 0 0 0 0 0 0 127 0" result="hardAlpha"/>
<feOffset dy="-0.4"/>
<feGaussianBlur stdDeviation="0.5"/>
<feComposite in2="hardAlpha" operator="arithmetic" k2="-1" k3="1"/>
<feColorMatrix type="matrix" values="0 0 0 0 0.439216 0 0 0 0 0.235294 0 0 0 0 0.407843 0 0 0 1 0"/>
<feBlend mode="normal" in2="effect1_innerShadow_20020_6751" result="effect2_innerShadow_20020_6751"/>
<feColorMatrix in="SourceAlpha" type="matrix" values="0 0 0 0 0 0 0 0 0 0 0 0 0 0 0 0 0 0 127 0" result="hardAlpha"/>
<feOffset dx="0.15" dy="0.15"/>
<feGaussianBlur stdDeviation="0.25"/>
<feComposite in2="hardAlpha" operator="arithmetic" k2="-1" k3="1"/>
<feColorMatrix type="matrix" values="0 0 0 0 0.513726 0 0 0 0 0.407843 0 0 0 0 0.364706 0 0 0 1 0"/>
<feBlend mode="normal" in2="effect2_innerShadow_20020_6751" result="effect3_innerShadow_20020_6751"/>
</filter>
<filter id="filter1_f_20020_6751" x="3.29602" y="6.91821" width="27.1422" height="18.8112" filterUnits="userSpaceOnUse" color-interpolation-filters="sRGB">
<feFlood flood-opacity="0" result="BackgroundImageFix"/>
<feBlend mode="normal" in="SourceGraphic" in2="BackgroundImageFix" result="shape"/>
<feGaussianBlur stdDeviation="1" result="effect1_foregroundBlur_20020_6751"/>
</filter>
<radialGradient id="paint0_radial_20020_6751" cx="0" cy="0" r="1" gradientUnits="userSpaceOnUse" gradientTransform="translate(15.2721 17.1302) rotate(-72.9574) scale(3.96133 3.0891)">
<stop stop-color="#5E3944"/>
<stop offset="1" stop-color="#4D252A"/>
</radialGradient>
<linearGradient id="paint1_linear_20020_6751" x1="17.1494" y1="17.8279" x2="16.1365" y2="17.7299" gradientUnits="userSpaceOnUse">
<stop stop-color="#3E1A1B"/>
<stop offset="1" stop-color="#3E1A1B" stop-opacity="0"/>
</linearGradient>
<radialGradient id="paint2_radial_20020_6751" cx="0" cy="0" r="1" gradientUnits="userSpaceOnUse" gradientTransform="translate(15.1075 13.9085) rotate(80.9581) scale(4.77812 3.99542)">
<stop offset="0.72718" stop-color="#753F6D" stop-opacity="0"/>
<stop offset="0.909009" stop-color="#753F6D"/>
</radialGradient>
<linearGradient id="paint3_linear_20020_6751" x1="13.1349" y1="15.6024" x2="14.0538" y2="15.7769" gradientUnits="userSpaceOnUse">
<stop stop-color="#74504C"/>
<stop offset="1" stop-color="#74504C" stop-opacity="0"/>
</linearGradient>
<radialGradient id="paint4_radial_20020_6751" cx="0" cy="0" r="1" gradientUnits="userSpaceOnUse" gradientTransform="translate(19.0266 19.4846) rotate(-84.0037) scale(7.5235 1.27571)">
<stop stop-color="#785458"/>
<stop offset="1" stop-color="#673F40"/>
</radialGradient>
<radialGradient id="paint5_radial_20020_6751" cx="0" cy="0" r="1" gradientUnits="userSpaceOnUse" gradientTransform="translate(19.75 13.5648) rotate(96.8313) scale(6.87836 5.87923)">
<stop offset="0.825321" stop-color="#78406F" stop-opacity="0"/>
<stop offset="0.965343" stop-color="#78406F"/>
</radialGradient>
<radialGradient id="paint6_radial_20020_6751" cx="0" cy="0" r="1" gradientUnits="userSpaceOnUse" gradientTransform="translate(16.2698 19.6167) rotate(-56.0919) scale(7.22011 7.09831)">
<stop offset="0.675738" stop-color="#532936" stop-opacity="0"/>
<stop offset="1" stop-color="#532936"/>
</radialGradient>
<linearGradient id="paint7_linear_20020_6751" x1="21.4485" y1="17.479" x2="20.0665" y2="17.8009" gradientUnits="userSpaceOnUse">
<stop stop-color="#472024"/>
<stop offset="1" stop-color="#4F2930" stop-opacity="0"/>
</linearGradient>
<radialGradient id="paint8_radial_20020_6751" cx="0" cy="0" r="1" gradientUnits="userSpaceOnUse" gradientTransform="translate(24 20.7211) rotate(-104.097) scale(7.18512 1.56176)">
<stop offset="0.192233" stop-color="#775056"/>
<stop offset="1" stop-color="#643C41"/>
</radialGradient>
<radialGradient id="paint9_radial_20020_6751" cx="0" cy="0" r="1" gradientUnits="userSpaceOnUse" gradientTransform="translate(24.1875 13.7836) rotate(98.8826) scale(7.2324 4.46687)">
<stop offset="0.871517" stop-color="#784858" stop-opacity="0"/>
<stop offset="0.996372" stop-color="#7C4476"/>
</radialGradient>
<linearGradient id="paint10_linear_20020_6751" x1="9.48084" y1="22.7985" x2="26.7102" y2="10.7041" gradientUnits="userSpaceOnUse">
<stop stop-color="#815950"/>
<stop offset="1" stop-color="#976F5E"/>
</linearGradient>
<radialGradient id="paint11_radial_20020_6751" cx="0" cy="0" r="1" gradientUnits="userSpaceOnUse" gradientTransform="translate(2.8125 18.4398) rotate(48.5035) scale(8.67828 3.03162)">
<stop stop-color="#794B59"/>
<stop offset="1" stop-color="#794B59" stop-opacity="0"/>
</radialGradient>
</defs>
</svg>

<svg width="32" height="32" fill="none" xmlns="http://www.w3.org/2000/svg"><path d="M15.011 18.125a2.19 2.19 0 0 1-1.738-2.553l.94-5.121 4.268.8-.943 5.12a2.168 2.168 0 0 1-2.527 1.754Z" fill="url(#a)"/><path d="M15.011 18.125a2.19 2.19 0 0 1-1.738-2.553l.94-5.121 4.268.8-.943 5.12a2.168 2.168 0 0 1-2.527 1.754Z" fill="url(#b)"/><path d="M15.011 18.125a2.19 2.19 0 0 1-1.738-2.553l.94-5.121 4.268.8-.943 5.12a2.168 2.168 0 0 1-2.527 1.754Z" fill="url(#c)"/><path d="M15.011 18.125a2.19 2.19 0 0 1-1.738-2.553l.94-5.121 4.268.8-.943 5.12a2.168 2.168 0 0 1-2.527 1.754Z" fill="url(#d)"/><path d="M18.77 20.18a2.193 2.193 0 0 1-1.962-2.399l.52-5.185 4.357.437-.52 5.185a2.186 2.186 0 0 1-2.395 1.962Z" fill="url(#e)"/><path d="M18.77 20.18a2.193 2.193 0 0 1-1.962-2.399l.52-5.185 4.357.437-.52 5.185a2.186 2.186 0 0 1-2.395 1.962Z" fill="url(#f)"/><path d="M18.77 20.18a2.193 2.193 0 0 1-1.962-2.399l.52-5.185 4.357.437-.52 5.185a2.186 2.186 0 0 1-2.395 1.962Z" fill="url(#g)"/><path d="M18.77 20.18a2.193 2.193 0 0 1-1.962-2.399l.52-5.185 4.357.437-.52 5.185a2.186 2.186 0 0 1-2.395 1.962Z" fill="url(#h)"/><path d="M23.929 20.892a2.19 2.19 0 0 1-2.552-1.753l-1.127-6.012 4.479.088.953 5.124a2.193 2.193 0 0 1-1.753 2.553Z" fill="url(#i)"/><path d="M23.929 20.892a2.19 2.19 0 0 1-2.552-1.753l-1.127-6.012 4.479.088.953 5.124a2.193 2.193 0 0 1-1.753 2.553Z" fill="url(#j)"/><g filter="url(#k)"><path d="M12.66 17.027c0-1.702.887-2.576 2.4-3.08.976-.21 4.53-.148 4.53-.148 1.133 0 1.78.448 2.438 1.055l3.758 3.21c.984.907 2.484 1.12 3.492.079 1.053-1.085.937-2.735-.344-3.844L23.17 9.312c-1.3-1.17-1.922-1.818-4.31-1.818H9.887C5.058 7.465 2.11 10.424 2.11 14.3c0 2.344 2.082 4.807 3.683 6.469l1.72 1.633c1.36 1.207 3.132 2.226 4.976 2.226h1.828c.59 0 1.052-.058 1.789.383.905.543 2.33.42 3.078-.328.652-.652.85-1.587.504-2.444-.601-1.497-2.262-2.126-3.879-2.439l-1.125-.156c-1.445-.102-2.023-1.735-2.023-2.616Z" fill="url(#l)"/></g><path d="M12.66 17.027c0-1.702.887-2.576 2.4-3.08.976-.21 4.53-.148 4.53-.148 1.133 0 1.78.448 2.438 1.055l3.758 3.21c.984.907 2.484 1.12 3.492.079 1.053-1.085.937-2.735-.344-3.844L23.17 9.312c-1.3-1.17-1.922-1.818-4.31-1.818H9.887C5.058 7.465 2.11 10.424 2.11 14.3c0 2.344 2.082 4.807 3.683 6.469l1.72 1.633c1.36 1.207 3.132 2.226 4.976 2.226h1.828c.59 0 1.052-.058 1.789.383.905.543 2.33.42 3.078-.328.652-.652.85-1.587.504-2.444-.601-1.497-2.262-2.126-3.879-2.439l-1.125-.156c-1.445-.102-2.023-1.735-2.023-2.616Z" fill="url(#m)"/><g filter="url(#n)"><path d="m21.423 9.776 6.69 5.27a.852.852 0 0 1-1.03 1.356l-6.163-4.517a2 2 0 0 0-1.424-.372l-4.98.606A4 4 0 0 0 11 16.09v.77a4 4 0 0 0 .961 2.602l.175.204a3 3 0 0 0 1.947 1.031l1.918.214a3 3 0 0 1 1.727.8l.846.798a.707.707 0 0 1-.939 1.057l-.437-.365a3 3 0 0 0-1.923-.697h-2.176a4 4 0 0 1-2.725-1.072l-3.803-3.538a4 4 0 0 1-1.17-3.835l.238-1.025a5 5 0 0 1 4.723-3.865l8.469-.248a4 4 0 0 1 2.592.856Z" fill="#A37B70"/></g><defs><radialGradient id="a" cx="0" cy="0" r="1" gradientUnits="userSpaceOnUse" gradientTransform="rotate(-72.957 19.22 -1.762) scale(3.96133 3.0891)"><stop stop-color="#5E3944"/><stop offset="1" stop-color="#4D252A"/></radialGradient><radialGradient id="c" cx="0" cy="0" r="1" gradientUnits="userSpaceOnUse" gradientTransform="matrix(.75091 4.71875 -3.94577 .6279 15.107 13.909)"><stop offset=".727" stop-color="#753F6D" stop-opacity="0"/><stop offset=".909" stop-color="#753F6D"/></radialGradient><radialGradient id="e" cx="0" cy="0" r="1" gradientUnits="userSpaceOnUse" gradientTransform="rotate(-84.004 20.333 -.823) scale(7.5235 1.27571)"><stop stop-color="#785458"/><stop offset="1" stop-color="#673F40"/></radialGradient><radialGradient id="f" cx="0" cy="0" r="1" gradientUnits="userSpaceOnUse" gradientTransform="rotate(96.831 3.857 15.545) scale(6.87836 5.87923)"><stop offset=".825" stop-color="#78406F" stop-opacity="0"/><stop offset=".965" stop-color="#78406F"/></radialGradient><radialGradient id="g" cx="0" cy="0" r="1" gradientUnits="userSpaceOnUse" gradientTransform="rotate(-56.092 26.546 -5.462) scale(7.22011 7.09831)"><stop offset=".676" stop-color="#532936" stop-opacity="0"/><stop offset="1" stop-color="#532936"/></radialGradient><radialGradient id="i" cx="0" cy="0" r="1" gradientUnits="userSpaceOnUse" gradientTransform="rotate(-104.097 20.08 1.001) scale(7.18512 1.56176)"><stop offset=".192" stop-color="#775056"/><stop offset="1" stop-color="#643C41"/></radialGradient><radialGradient id="j" cx="0" cy="0" r="1" gradientUnits="userSpaceOnUse" gradientTransform="matrix(-1.11676 7.14566 -4.4133 -.68973 24.188 13.784)"><stop offset=".872" stop-color="#784858" stop-opacity="0"/><stop offset=".996" stop-color="#7C4476"/></radialGradient><radialGradient id="m" cx="0" cy="0" r="1" gradientUnits="userSpaceOnUse" gradientTransform="matrix(5.75 6.5 -2.27067 2.00867 2.813 18.44)"><stop stop-color="#794B59"/><stop offset="1" stop-color="#794B59" stop-opacity="0"/></radialGradient><linearGradient id="b" x1="17.149" y1="17.828" x2="16.137" y2="17.73" gradientUnits="userSpaceOnUse"><stop stop-color="#3E1A1B"/><stop offset="1" stop-color="#3E1A1B" stop-opacity="0"/></linearGradient><linearGradient id="d" x1="13.135" y1="15.602" x2="14.054" y2="15.777" gradientUnits="userSpaceOnUse"><stop stop-color="#74504C"/><stop offset="1" stop-color="#74504C" stop-opacity="0"/></linearGradient><linearGradient id="h" x1="21.448" y1="17.479" x2="20.067" y2="17.801" gradientUnits="userSpaceOnUse"><stop stop-color="#472024"/><stop offset="1" stop-color="#4F2930" stop-opacity="0"/></linearGradient><linearGradient id="l" x1="9.481" y1="22.799" x2="26.71" y2="10.704" gradientUnits="userSpaceOnUse"><stop stop-color="#815950"/><stop offset="1" stop-color="#976F5E"/></linearGradient><filter id="k" x="2.11" y="6.244" width="29.13" height="19.251" filterUnits="userSpaceOnUse" color-interpolation-filters="sRGB"><feFlood flood-opacity="0" result="BackgroundImageFix"/><feBlend in="SourceGraphic" in2="BackgroundImageFix" result="shape"/><feColorMatrix in="SourceAlpha" values="0 0 0 0 0 0 0 0 0 0 0 0 0 0 0 0 0 0 127 0" result="hardAlpha"/><feOffset dx="1.25" dy="-1.25"/><feGaussianBlur stdDeviation=".75"/><feComposite in2="hardAlpha" operator="arithmetic" k2="-1" k3="1"/><feColorMatrix values="0 0 0 0 0.478431 0 0 0 0 0.298039 0 0 0 0 0.32549 0 0 0 1 0"/><feBlend in2="shape" result="effect1_innerShadow_20020_6751"/><feColorMatrix in="SourceAlpha" values="0 0 0 0 0 0 0 0 0 0 0 0 0 0 0 0 0 0 127 0" result="hardAlpha"/><feOffset dy="-.4"/><feGaussianBlur stdDeviation=".5"/><feComposite in2="hardAlpha" operator="arithmetic" k2="-1" k3="1"/><feColorMatrix values="0 0 0 0 0.439216 0 0 0 0 0.235294 0 0 0 0 0.407843 0 0 0 1 0"/><feBlend in2="effect1_innerShadow_20020_6751" result="effect2_innerShadow_20020_6751"/><feColorMatrix in="SourceAlpha" values="0 0 0 0 0 0 0 0 0 0 0 0 0 0 0 0 0 0 127 0" result="hardAlpha"/><feOffset dx=".15" dy=".15"/><feGaussianBlur stdDeviation=".25"/><feComposite in2="hardAlpha" operator="arithmetic" k2="-1" k3="1"/><feColorMatrix values="0 0 0 0 0.513726 0 0 0 0 0.407843 0 0 0 0 0.364706 0 0 0 1 0"/><feBlend in2="effect2_innerShadow_20020_6751" result="effect3_innerShadow_20020_6751"/></filter><filter id="n" x="3.296" y="6.918" width="27.142" height="18.811" filterUnits="userSpaceOnUse" color-interpolation-filters="sRGB"><feFlood flood-opacity="0" result="BackgroundImageFix"/><feBlend in="SourceGraphic" in2="BackgroundImageFix" result="shape"/><feGaussianBlur stdDeviation="1" result="effect1_foregroundBlur_20020_6751"/></filter></defs></svg>
